!!!OTL-incipit: SIND WIR GESCHIEDEN
!!!ARE: Europa, Mitteleuropa, Deutschland
!!!SCT: Z0280
!!!YEM: Copyright 1995, estate of Helmut Schaffrath.
**kern	**text
*ICvox	*
*M2/4	*
*k[]	*
*a:	*
!LO:TX:a:t=Altes Lied.	!
{8g	Sind
=1	=1
4cc	wir
4dd	ge-
=2	=2
4ee	-ſchie-
8dd	-den,
8ee	und
=3	=3
8ff	ich
8ee	muß
8dd	le-
8cc	-ben
=4	=4
8dd	oh-
8dd	-ne
8dd}	dich,
{8g	gieb
=5	=5
4cc	dich
4dd	ʒu-
=6	=6
8eeL	-frie-
8ffJ	.
8gg	-den,
8ff	du
=7	=7
8ee	biſt
8cc	mein
8dd	einʒ'-
8b	-ges
=8	=8
4.cc}	Licht.
=||	=||
{8dd	Bleib
=9	=9
4dd	mir
4dd	be-
=10	=10
8bL	-ſtän-
8aJ	.
8g	-dig,
8ee	treu
=11	=11
4ee	un-
4ee	-ab-
=12	=12
8ccL	-wen-
8bJ	.
8a}	-dig;
{8a	mein
=13	=13
8ff	letʒ-
8ee	-ter
8dd	Tropfen
8cc	.
=14	=14
4.b	Blut
8dd	ſey
=15	=15
8cc	dir,
8a	mein
8b/	En-
8g#	-gel,
=16	=16
4.a}	gut.
==	==
!!!Ag: Lyrisches Lied, Romanze, verlassene Liebe
!!!ONB: ESAC (Essen Associative Code) Database: ZUCCAL
!!!AMT: simple duple
!!!AIN: vox
!!!EED: Helmut Schaffrath
!!!EEV: 1.0
!!!GTL: IV. Lyrische Lieder.
!!!URL-scan: https://www.digitale-sammlungen.de/de/view/bsb11160571?page=507
!!!ENC: Anna Maria Matuszewska
!!!EEV: 2025/01/30
*-	*-
